X:1
T:Title
%%score 1 { 2 | 3 }
L:1/8
Q:1/4=112
M:4/4
K:Ab
V:1 treble nm="Grand Piano, Staff 1"
V:2 bass nm="Choir Pad, St. Bees, 77.77"
V:3 bass 
V:1
 [EA]2 [EA]2 [DA]3 [DG] | [DF]2 [DG]2 [CA]4 | [EB]2 [EB]2 [Ec]2 E2 | [EF]2 [DB]2 [B,G]4 | %4
w: By~John~Bacchus~Dykes,~1862 * * *||||
 [EB]2 [Ed]2 [Ec]3 [EA] | [DG]2 [DB]2 [CA]4 | [FA]2 [FB]2 [EA]2 [EA]2 | [EA]3 [EG] [EA]4- | %8
w: ||||
 [EA]4 z4 |] %9
w: |
V:2
 C2 C2 B,3 B, | A,2 B,2[K:treble] C4 | B,2 D2 C2 A,2 | A,2 G,2 E,4 | B,2 B,2 C3 C | B,2 G,2 A,4 | %6
 D2 D2 C2 B,A, | B,3 B, C4- | C4 z4 |] %9
V:3
 A,2 A,2 E,3 E, | E,2 E,2 A,4 | G,2 G,2 A,2 C,2 | D,2 D,2 z4 | G,2 G,2 A,3 A, | E,2 E,2 F,4 | %6
 D,2 D,2 E,2 E,2 | E,3 E, A,,4- | A,,4 z4 |] %9

